X:1
T:Title
%%score { ( 1 3 4 ) | ( 2 5 6 ) }
L:1/8
Q:1/4=100
M:4/4
K:Ab
V:1 treble nm="Grand Piano"
V:3 treble 
V:4 treble 
V:2 treble 
V:5 treble 
V:6 treble 
V:1
 c2 d2 c2 B2 | [Ec][Fd][Ec][DB] [CA]2 E2 | B6 z2 | [GB]6 z2 | c2 d2 c2 B2 | %5
w: D.~W.~Henderson * * *|||||
 [Ec][Fd][Ec][DB] [CA]2 [CE]2 | [Ec]6 z2 | A6 z2 | e4 z4 | [Ec]4 z4 | [EB]6 z2 | [GB]6 z2 | %12
w: |||||||
 c2 d2 c2 B2 | [Ec][Fd][Ec][DB] [CA]2 [CE]2 | [Ec]6 z2 | A6 z2 |] %16
w: ||||
V:2
 [A,E]2 [A,F]2[K:bass] [A,E]2 [E,G,E]2 | [A,,A,][A,,A,][A,,A,][A,,A,] [A,,A,]2 [C,A,]2 | %2
 E6[K:treble] z2 | E,E,E,E, E,2 z2 | [A,E]2 [A,F]2[K:bass] [A,E]2 [E,G,E]2 | %5
 [A,,A,][A,,A,][A,,A,][A,,A,] [A,,A,]2 [A,,A,]2 | [E,A,]E,E,E, z DCB, | %7
 [A,,E,]A,,[A,,F,][A,,F,] [A,,E,]2 z2 | A-[A,A-][A,A][A,DA] [A,CA][A,B,A][K:bass] [A,E]2 | %9
 [A,,A,]A,,A,,[A,,A,] [A,,A,][A,,A,] [A,,A,]2 | [E,G,]E,E,E, z[K:treble] ABA | E,E,E,E, E,2 z2 | %12
 [A,E]2 [A,F]2[K:bass] [A,E]2 [E,G,E]2 | [A,,A,][A,,A,][A,,A,][A,,A,] [A,,A,]2 [A,,A,]2 | %14
 [E,A,]E,E,E, z DCB, | [A,,E,]A,,[A,,F,][A,,F,] [A,,E,]2 z2 |] %16
V:3
 x8 | x8 | z G,G,G, z cdc | EEEE E2 z2 | x8 | x8 | z A,A,A, z BAG | C-[E,C]DD C2 z2 | z CCf ed c2 | %9
 z A,A,[Fd] [Ec][DB] [CA]2 | z G,G,G, z cdc | EEEE E2 z2 | x8 | x8 | z A,A,A, z BAG | %15
 C-[E,C]DD C2 z2 |] %16
V:4
 x8 | x8 | z4 G,2 z2 | x8 | x8 | x8 | z4 A,2 z2 | x8 | x8 | x8 | z4 G,2 z2 | x8 | x8 | x8 | %14
 z4 A,2 z2 | x8 |] %16
V:5
 x4[K:bass] x4 | x8 | [E,G,]E,E,E, z[K:treble] ABA | x8 | x4[K:bass] x4 | x8 | z4 E,2 z2 | x8 | %8
 .[A,C]2 z2 z4[K:bass] | x8 | z4 E,2[K:treble] z2 | x8 | x4[K:bass] x4 | x8 | z4 E,2 z2 | x8 |] %16
V:6
 x4[K:bass] x4 | x8 | z4 E,2[K:treble] z2 | x8 | x4[K:bass] x4 | x8 | x8 | x8 | x6[K:bass] x2 | %9
 x8 | x5[K:treble] x3 | x8 | x4[K:bass] x4 | x8 | x8 | x8 |] %16

